X: 13
T: New Princess Royal
T: Longways for as many as will.
%R: reel
B: Daniel Wright "Wright's Compleat Collection of Celebrated Country Dances" 1740 p.7
S: http://library.efdss.org/cgi-bin/dancebooks.cgi
Z: 2014 John Chambers <jc:trillian.mit.edu>
M: C|
L: 1/8
K: Gm
% - - - - - - - - - - - - - - - - - - - - - - - - -
A2 |\
B2AB G2dc | B2G2 G2d2 |\
e2de c2f2 | d2cd B2d2 |\
c2B2 A2F2 | ^FGAF D2dc |
BABG D2^F2 | G6 |]\
d2 |\
g^fga gaga | b2 B4 ba |\
gfed cdBc | A2F2 F4 |\
B2AB c2Bc |
d2d2 g4 |\
f2B2 e4 | d2G2 c4 |\
B3A GABG | ^FGAF D2dc |\
BABG D2^F2 | G6 |]
% - - - - - - - - - - - - - - - - - - - - - - - - -
%%begintext align
%% The 1st Man Hey on the Wo. side & the 1st Wo.
%% Hey on the Mens side .| Then the 1st Cu. Hey on their
%% own side :| The 1st Cu. cross over two Cu. clap hands
%% & turn the Tune out .| then the 1st Cu. cast behind
%% the 3d Cu. lead thwo' the 2d Cu. Foot it & clap hands
%% at top and cast off.
%%endtext
% - - - - - - - - - - - - - - - - - - - - - - - - -
%%sep 2 4 300
